X:0356
M:6/8
L:1/8
Q:3/8=120
K:G
     G2A BAG|d2d d2g| fed ed^c|d3  d2::
d   |g2d g2d|g3  gfe| dcB AGF |G3  G2:|

